static/assets/logos/TNT/nobg/notext.svg

<?xml version="1.0" encoding="UTF-8" standalone="no"?>
<svg
   version="1.1"
   width="320pt"
   height="320pt"
   viewBox="0 0 320.00001 320.00001"
   id="svg32"
   sodipodi:docname="notext.svg"
   inkscape:version="1.3 (0e150ed6c4, 2023-07-21)"
   xmlns:inkscape="http://www.inkscape.org/namespaces/inkscape"
   xmlns:sodipodi="http://sodipodi.sourceforge.net/DTD/sodipodi-0.dtd"
   xmlns="http://www.w3.org/2000/svg"
   xmlns:svg="http://www.w3.org/2000/svg">
  <sodipodi:namedview
     id="namedview32"
     pagecolor="#505050"
     bordercolor="#ffffff"
     borderopacity="1"
     inkscape:showpageshadow="0"
     inkscape:pageopacity="0"
     inkscape:pagecheckerboard="1"
     inkscape:deskcolor="#505050"
     inkscape:document-units="pt"
     inkscape:zoom="2.2076456"
     inkscape:cx="248.22825"
     inkscape:cy="217.65269"
     inkscape:window-width="1452"
     inkscape:window-height="991"
     inkscape:window-x="26"
     inkscape:window-y="23"
     inkscape:window-maximized="0"
     inkscape:current-layer="svg32" />
  <defs
     id="defs2">
    <clipPath
       id="clip_0">
      <path
         transform="matrix(1,0,0,-1,0,425.197)"
         d="M 0,425.197 H 425.197 V 0 H 0 Z"
         id="path1" />
    </clipPath>
    <clipPath
       id="clip_1">
      <path
         transform="matrix(1,0,0,-1,0,425.197)"
         d="M 0,425.197 H 425.197 V 0 H 0 Z"
         id="path2" />
    </clipPath>
  </defs>
  <g
     id="g1"
     transform="translate(-71.731618,-27.340112)">
    <path
       transform="matrix(1,0,0,-1,116.732,203.888)"
       d="m 0,0 c -4.727,-6.375 -5.136,-14.731 -1.235,-19.469 3.06,-3.717 7.469,-3.637 9.087,0.163 C 10.106,-14.012 6.188,-3.933 0,0 m 1.061,-25.719 c -9.006,9.882 -10.765,19.297 -4.097,27.167 1.926,2.274 6.573,3.934 9.451,3.343 5.216,-1.072 8.757,-11.534 7.15,-18.992 -1.454,-6.744 -4.02,-12.571 -12.72,-11.321 0.004,-0.003 0.216,-0.197 0.216,-0.197"
       fill="#231f20"
       id="path23"
       clip-path="none" />
    <path
       transform="matrix(1,0,0,-1,117.913,233.968)"
       d="m 0,0 c 0.491,-17.069 -1.85,-21.738 -13.401,-24.272 5.732,-2.644 9.656,-0.219 12.337,3.446 C 3.69,-14.324 4.054,-7.136 0,0 m -28.152,8.752 c 7.449,8.26 6.708,14.301 -2.029,19.572 -5.661,-8.931 -5.258,-13.928 2.029,-19.572 m 1.612,27.701 c -1.198,-0.202 -2.568,-0.095 -3.566,-0.653 -9.207,-5.143 -10.918,-24.773 -2.689,-31.303 4.188,-3.323 8.274,-3.052 12.099,0.971 5.14,5.404 5.062,11.681 3.734,19.399 -1.381,-5.424 -1.952,-9.994 -3.793,-13.977 -1.014,-2.195 -4.249,-4.827 -6.323,-4.697 -2.542,0.159 -5.891,2.456 -7.187,4.779 -4.682,8.392 -0.883,18.821 7.725,25.481 m 12.541,20.023 c -0.715,0.016 -1.429,0.032 -2.144,0.047 -0.916,-5.579 -2.563,-11.174 -2.434,-16.729 0.062,-2.681 3.31,-5.431 5.518,-7.77 0.339,-0.359 3.771,1.002 4.19,2.146 1.201,3.281 2.875,7.239 1.991,10.23 -1.286,4.347 -4.646,8.081 -7.121,12.076 M 3.595,-17.929 c 4.954,0 8.978,0.24 12.962,-0.059 5.27,-0.396 14.17,8.307 13.454,13.646 -0.151,1.126 -1.283,3.082 -1.853,3.043 -6.81,-0.46 -13.781,-0.56 -20.277,-2.337 -1.82,-0.497 -2.288,-6.147 -3.258,-9.468 -0.512,-1.751 -0.769,-3.578 -1.028,-4.825 M 0.067,57.925 c 1.74,-5.076 3.292,-9.6 5.241,-15.285 2.997,1.222 5.832,2.378 8.889,3.624 4.021,-5.636 9.14,-4.993 14.622,-0.296 -3.792,11.92 -18.444,18.044 -28.752,11.957 m 117.775,0.369 c 1.796,-4.386 2.667,-9.7 5.721,-12.979 2.531,-2.718 7.786,-4.399 11.557,-3.989 3.034,0.33 7.76,4.229 8.081,6.972 1.186,10.154 -9.817,16.856 -19.243,12.464 -1.806,-0.841 -3.698,-1.499 -6.116,-2.468 M 12.833,35.055 c 6.153,-8.891 6.32,-18.9 1.982,-29.296 0.815,-0.567 1.631,-1.134 2.446,-1.701 3.047,2.697 6.094,5.393 8.505,7.526 0.556,-0.821 1.625,-2.399 2.695,-3.977 2.145,1.59 5.77,2.891 6.148,4.826 1.008,5.169 1.384,10.748 0.465,15.887 -0.457,2.558 -4.014,5.867 -6.683,6.44 -4.858,1.041 -10.099,0.295 -15.558,0.295 M 96.46,39.104 C 96.944,49.241 92.988,58.864 87.894,58.79 77.055,58.633 66.218,57.477 55.418,56.363 54.062,56.223 52.236,54.045 51.837,52.498 50.788,48.443 57.822,39.267 62.141,39.18 73.387,38.955 84.642,39.104 96.46,39.104 m 61.726,-8.279 c -6.435,5.681 -22.116,6.918 -29.099,2.021 -1.232,-0.864 -2.214,-2.999 -2.21,-4.544 0.015,-5.589 0.5,-11.175 0.848,-17.51 5.913,-0.798 11.98,-2.563 17.879,-2.118 4.875,0.368 11.314,2.016 13.925,5.468 4.396,5.812 4.95,13.462 -0.594,20.774 -0.319,-1.742 -0.533,-2.916 -0.749,-4.091 M 96.729,-17.861 c 1.288,-0.838 2.577,-1.677 3.866,-2.515 2.444,3.064 4.887,6.128 7.073,8.87 0.209,-1.739 0.517,-4.307 0.825,-6.875 0.786,-0.088 1.572,-0.176 2.358,-0.263 12.664,15.157 15.184,33.432 12.801,52.343 -1.323,10.498 -5.602,20.639 -12.746,28.661 -0.616,-0.338 -1.232,-0.675 -1.848,-1.013 0.809,-2.977 1.617,-5.954 2.832,-10.428 -3.124,4.003 -5.112,6.549 -7.099,9.095 -0.485,-0.269 -0.97,-0.539 -1.455,-0.808 1.046,-3.688 2.092,-7.376 3.188,-11.239 -3.845,4.928 -7.472,9.576 -11.098,14.223 C 94.673,61.676 93.92,61.162 93.167,60.647 99.152,48.404 106.408,36.746 106.846,22.445 107.288,8.056 105.041,-5.478 96.729,-17.861 M 56.303,-5.237 c 0.291,-7.722 3.332,-10.151 10.997,-9.305 4.94,0.545 10.047,1.382 14.883,0.701 11.867,-1.671 16.934,1.644 18.81,14.553 -15.552,1.465 -31.177,6.201 -44.879,-6.17 0.481,6.18 1.214,12.353 1.394,18.542 0.426,14.633 -3.943,28.009 -11.202,42.944 -0.282,-3.867 -0.382,-5.251 -0.459,-6.307 -2.829,4.32 -5.564,8.497 -8.299,12.673 -0.612,-0.406 -1.223,-0.812 -1.835,-1.219 3.51,-9.83 7.02,-19.661 10.53,-29.492 -0.767,-0.252 -1.535,-0.504 -2.302,-0.756 -6.502,10.807 -4.202,27.725 -23.099,32.247 23.742,-27.671 22.025,-55.172 3.847,-83.671 5.711,2.818 10.251,5.058 16.02,7.905 -0.546,-3.721 -0.781,-5.323 -1.016,-6.925 0.912,-0.343 1.823,-0.686 2.735,-1.029 2.746,6.72 5.491,13.44 8.198,20.063 -0.327,-4.732 -0.662,-9.6 -0.998,-14.468 0.559,-0.166 1.117,-0.332 1.676,-0.498 1.664,3.401 3.328,6.802 4.999,10.212 m -74.48,3.429 c 2.601,3.274 5.202,6.548 7.544,9.496 -10.108,-0.779 -15.712,-13.475 -11.126,-22.473 0.982,3.428 2.381,8.311 3.779,13.195 -0.014,-4.231 -0.849,-8.696 0.267,-12.604 0.668,-2.342 4.182,-4.275 6.834,-5.445 1.022,-0.45 4.529,1.599 4.635,2.724 0.663,6.991 1.002,14.15 -6.127,19.226 -2.038,-1.445 -3.918,-2.778 -5.806,-4.119 M -0.12,4.36 -0.333,4.554 C 4.914,0.429 8.576,3.163 11.637,7.507 16.976,15.083 16.122,27.44 10.054,34.559 5.982,39.337 1.561,39.602 -3.383,36.056 -14.523,28.068 -12.693,10.24 -0.12,4.36 m 144.223,-19.052 c -1,-5.457 -3.933,-8.587 -9.821,-8.37 -10.8,0.397 -21.615,0.516 -32.401,1.14 -9.928,0.574 -19.864,2.654 -29.727,2.272 -12.749,-0.494 -25.42,-2.856 -38.141,-4.263 -12.908,-1.428 -25.867,-0.088 -38.866,-3.555 -12.844,-3.425 -22.809,7.997 -20.648,21.258 0.253,1.55 0.438,3.112 0.649,4.629 -10.071,2.733 -15.44,7.916 -15.876,16.926 -0.453,9.366 1.223,18.166 10.508,23.687 1.877,1.116 2.774,4.455 3.426,6.952 2.021,7.736 2.78,16.16 12.339,18.927 -10.647,-11.879 -12.561,-21.306 -7.588,-29.632 0.725,5.174 1.197,12.206 2.906,18.923 0.689,2.708 3.705,5.704 6.375,6.749 2.122,0.831 5.327,-1.107 8.052,-1.816 0.179,0.398 0.359,0.796 0.538,1.194 -3.493,1.479 -6.986,2.957 -10.48,4.435 2.155,1.055 4.334,3.062 6.46,3.009 12.341,-0.311 24.673,-1.034 37,-1.757 15.468,-0.907 30.919,-2.215 46.398,-2.797 6.083,-0.229 12.217,1.105 18.338,1.609 12.717,1.045 25.434,2.481 38.168,2.681 3.183,0.05 7.579,-3.286 9.4,-6.289 3.412,-5.625 5.348,-12.144 8.165,-18.933 7.01,0.23 13.532,-2.021 15.436,-10.605 12.578,2.408 13.578,4.074 11.128,15.964 -0.449,2.178 -0.217,4.917 0.74,6.893 5.371,11.089 22.385,19.134 34.363,16.558 5.652,-1.215 7.748,-6.021 5.039,-11.87 -1.214,-2.621 -2.717,-5.108 -4.166,-7.797 8.159,-2.026 15.688,1.256 19.596,10.148 3.153,7.171 4.212,15.262 6.049,22.363 2.616,-8.889 3.973,-19.168 -2.896,-27.015 -5.109,-5.835 -12.667,-10.429 -20.032,-13.103 -6.041,-2.194 -9.983,4.386 -7.411,10.878 1.072,2.708 2.325,5.344 3.908,8.951 -8.534,3.27 -15.094,-0.216 -21.074,-4.411 -4.722,-3.312 -9.418,-6.927 -7.02,-14.492 3.113,-9.815 0.041,-15.479 -10.195,-18.973 -4.744,-1.619 -7.684,-3.501 -8.741,-8.763 -1.561,-7.771 -6.853,-12.579 -12.776,-14.162 -2.776,-6.731 -5.048,-12.236 -7.321,-17.743 1.07,4.537 2.141,9.076 3.285,13.923 -6.203,1.423 -12.869,5.198 -16.948,3.328 -5.281,-2.421 -8.499,-9.343 -12.605,-14.327 0.635,-1.15 1.27,-2.301 1.906,-3.452 8.187,0.243 16.374,0.486 24.561,0.728"
       fill="#231f20"
       id="path3"
       clip-path="none" />
    <path
       transform="matrix(1,0,0,-1,386.345,149.191)"
       d="m 0,0 c -21.53,-2.474 -20.104,-2.327 -16.566,-13.083 -3.315,0.998 -6.773,2.04 -10.762,3.242 -0.734,4.632 7.655,5.499 5.454,13.28 -1.791,6.332 -3.323,8.769 -9.831,9.19 -7.543,0.488 -11.454,-4.445 -13.667,-9.391 -2.875,-6.427 6.858,-8.77 9.56,-14.527 -1.684,-1.204 -3.365,-2.404 -5.368,-3.836 1.003,13.653 -8.77,7.354 -16.916,8.25 4.484,2.619 7.169,4.187 11.394,6.654 -7.96,4.072 -14.803,7.572 -21.646,11.072 0.11,0.254 0.219,0.509 0.329,0.764 5.176,-1.097 10.32,-2.407 15.543,-3.196 2.462,-0.373 5.075,0.254 7.62,0.428 -0.23,2.491 -1.556,3.974 -2.173,6.365 -0.564,2.19 -2.354,7.988 -3.615,10.675 4.494,-3.394 10.154,-8.962 13.933,-11.816 2.642,3.776 5.66,19.326 7.873,22.49 0.617,-2.252 0.217,-18.538 2.46,-20.734 1.935,-1.894 14.058,7.186 17.227,6.788 C -11.115,17.802 -21.299,8.654 -19.777,6.881 -18.014,4.826 -11.271,2.086 0,0"
       fill="#231f20"
       id="path4"
       clip-path="none" />
    <text
       fill="#231f20"
       xml:space="preserve"
       transform="translate(0,425.197)"
       font-size="12px"
       font-family="MyriadPro"
       id="text25"
       clip-path="none"><tspan
         y="-213.4785"
         x="205.63791"
         id="tspan25"> </tspan></text>
  </g>
</svg>

<?xml version="1.0" encoding="UTF-8" standalone="no"?>
<svg
   version="1.1"
   width="425.197pt"
   height="425.197pt"
   viewBox="0 0 425.197 425.197"
   id="svg32"
   sodipodi:docname="TNT_nobg_notext.svg"
   inkscape:version="1.3 (0e150ed6c4, 2023-07-21)"
   xmlns:inkscape="http://www.inkscape.org/namespaces/inkscape"
   xmlns:sodipodi="http://sodipodi.sourceforge.net/DTD/sodipodi-0.dtd"
   xmlns="http://www.w3.org/2000/svg"
   xmlns:svg="http://www.w3.org/2000/svg">
  <sodipodi:namedview
     id="namedview32"
     pagecolor="#505050"
     bordercolor="#ffffff"
     borderopacity="1"
     inkscape:showpageshadow="0"
     inkscape:pageopacity="0"
     inkscape:pagecheckerboard="1"
     inkscape:deskcolor="#505050"
     inkscape:document-units="pt"
     inkscape:zoom="2.2076456"
     inkscape:cx="248.45473"
     inkscape:cy="217.19972"
     inkscape:window-width="1981"
     inkscape:window-height="1691"
     inkscape:window-x="1090"
     inkscape:window-y="0"
     inkscape:window-maximized="0"
     inkscape:current-layer="svg32" />
  <defs
     id="defs2">
    <clipPath
       id="clip_0">
      <path
         transform="matrix(1,0,0,-1,0,425.197)"
         d="M0 425.197H425.197V0H0Z"
         id="path1" />
    </clipPath>
    <clipPath
       id="clip_1">
      <path
         transform="matrix(1,0,0,-1,0,425.197)"
         d="M0 425.197H425.197V0H0Z"
         id="path2" />
    </clipPath>
  </defs>
  <path
     transform="matrix(1 0 0 -1 116.732 203.888)"
     d="M0 0C-4.727-6.375-5.136-14.731-1.235-19.469 1.825-23.186 6.234-23.106 7.852-19.306 10.106-14.012 6.188-3.933 0 0M1.061-25.719C-7.945-15.837-9.704-6.422-3.036 1.448-1.11 3.722 3.537 5.382 6.415 4.791 11.631 3.719 15.172-6.743 13.565-14.201 12.111-20.945 9.545-26.772 .845-25.522 .849-25.525 1.061-25.719 1.061-25.719"
     fill="#231f20"
     id="path23"
     clip-path="none" />
  <path
     transform="matrix(1 0 0 -1 117.913 233.968)"
     d="M0 0C.491-17.069-1.85-21.738-13.401-24.272-7.669-26.916-3.745-24.491-1.064-20.826 3.69-14.324 4.054-7.136 0 0M-28.152 8.752C-20.703 17.012-21.444 23.053-30.181 28.324-35.842 19.393-35.439 14.396-28.152 8.752M-26.54 36.453C-27.738 36.251-29.108 36.358-30.106 35.8-39.313 30.657-41.024 11.027-32.795 4.497-28.607 1.174-24.521 1.445-20.696 5.468-15.556 10.872-15.634 17.149-16.962 24.867-18.343 19.443-18.914 14.873-20.755 10.89-21.769 8.695-25.004 6.063-27.078 6.193-29.62 6.352-32.969 8.649-34.265 10.972-38.947 19.364-35.148 29.793-26.54 36.453M-13.999 56.476C-14.714 56.492-15.428 56.508-16.143 56.523-17.059 50.944-18.706 45.349-18.577 39.794-18.515 37.113-15.267 34.363-13.059 32.024-12.72 31.665-9.288 33.026-8.869 34.17-7.668 37.451-5.994 41.409-6.878 44.4-8.164 48.747-11.524 52.481-13.999 56.476M3.595-17.929C8.549-17.929 12.573-17.689 16.557-17.988 21.827-18.384 30.727-9.681 30.011-4.342 29.86-3.216 28.728-1.26 28.158-1.299 21.348-1.759 14.377-1.859 7.881-3.636 6.061-4.133 5.593-9.783 4.623-13.104 4.111-14.855 3.854-16.682 3.595-17.929M.067 57.925C1.807 52.849 3.359 48.325 5.308 42.64 8.305 43.862 11.14 45.018 14.197 46.264 18.218 40.628 23.337 41.271 28.819 45.968 25.027 57.888 10.375 64.012 .067 57.925M117.842 58.294C119.638 53.908 120.509 48.594 123.563 45.315 126.094 42.597 131.349 40.916 135.12 41.326 138.154 41.656 142.88 45.555 143.201 48.298 144.387 58.452 133.384 65.154 123.958 60.762 122.152 59.921 120.26 59.263 117.842 58.294M12.833 35.055C18.986 26.164 19.153 16.155 14.815 5.759 15.63 5.192 16.446 4.625 17.261 4.058 20.308 6.755 23.355 9.451 25.766 11.584 26.322 10.763 27.391 9.185 28.461 7.607 30.606 9.197 34.231 10.498 34.609 12.433 35.617 17.602 35.993 23.181 35.074 28.32 34.617 30.878 31.06 34.187 28.391 34.76 23.533 35.801 18.292 35.055 12.833 35.055M96.46 39.104C96.944 49.241 92.988 58.864 87.894 58.79 77.055 58.633 66.218 57.477 55.418 56.363 54.062 56.223 52.236 54.045 51.837 52.498 50.788 48.443 57.822 39.267 62.141 39.18 73.387 38.955 84.642 39.104 96.46 39.104M158.186 30.825C151.751 36.506 136.07 37.743 129.087 32.846 127.855 31.982 126.873 29.847 126.877 28.302 126.892 22.713 127.377 17.127 127.725 10.792 133.638 9.994 139.705 8.229 145.604 8.674 150.479 9.042 156.918 10.69 159.529 14.142 163.925 19.954 164.479 27.604 158.935 34.916 158.616 33.174 158.402 32 158.186 30.825M96.729-17.861C98.017-18.699 99.306-19.538 100.595-20.376 103.039-17.312 105.482-14.248 107.668-11.506 107.877-13.245 108.185-15.813 108.493-18.381 109.279-18.469 110.065-18.557 110.851-18.644 123.515-3.487 126.035 14.788 123.652 33.699 122.329 44.197 118.05 54.338 110.906 62.36 110.29 62.022 109.674 61.685 109.058 61.347 109.867 58.37 110.675 55.393 111.89 50.919 108.766 54.922 106.778 57.468 104.791 60.014 104.306 59.745 103.821 59.475 103.336 59.206 104.382 55.518 105.428 51.83 106.524 47.967 102.679 52.895 99.052 57.543 95.426 62.19 94.673 61.676 93.92 61.162 93.167 60.647 99.152 48.404 106.408 36.746 106.846 22.445 107.288 8.056 105.041-5.478 96.729-17.861M56.303-5.237C56.594-12.959 59.635-15.388 67.3-14.542 72.24-13.997 77.347-13.16 82.183-13.841 94.05-15.512 99.117-12.197 100.993 .712 85.441 2.177 69.816 6.913 56.114-5.458 56.595 .722 57.328 6.895 57.508 13.084 57.934 27.717 53.565 41.093 46.306 56.028 46.024 52.161 45.924 50.777 45.847 49.721 43.018 54.041 40.283 58.218 37.548 62.394 36.936 61.988 36.325 61.582 35.713 61.175 39.223 51.345 42.733 41.514 46.243 31.683 45.476 31.431 44.708 31.179 43.941 30.927 37.439 41.734 39.739 58.652 20.842 63.174 44.584 35.503 42.867 8.002 24.689-20.497 30.4-17.679 34.94-15.439 40.709-12.592 40.163-16.313 39.928-17.915 39.693-19.517 40.605-19.86 41.516-20.203 42.428-20.546 45.174-13.826 47.919-7.106 50.626-.483 50.299-5.215 49.964-10.083 49.628-14.951 50.187-15.117 50.745-15.283 51.304-15.449 52.968-12.048 54.632-8.647 56.303-5.237M-18.177-1.808C-15.576 1.466-12.975 4.74-10.633 7.688-20.741 6.909-26.345-5.787-21.759-14.785-20.777-11.357-19.378-6.474-17.98-1.59-17.994-5.821-18.829-10.286-17.713-14.194-17.045-16.536-13.531-18.469-10.879-19.639-9.857-20.089-6.35-18.04-6.244-16.915-5.581-9.924-5.242-2.765-12.371 2.311-14.409 .866-16.289-.467-18.177-1.808M-.12 4.36-.333 4.554C4.914 .429 8.576 3.163 11.637 7.507 16.976 15.083 16.122 27.44 10.054 34.559 5.982 39.337 1.561 39.602-3.383 36.056-14.523 28.068-12.693 10.24-.12 4.36M144.103-14.692C143.103-20.149 140.17-23.279 134.282-23.062 123.482-22.665 112.667-22.546 101.881-21.922 91.953-21.348 82.017-19.268 72.154-19.65 59.405-20.144 46.734-22.506 34.013-23.913 21.105-25.341 8.146-24.001-4.853-27.468-17.697-30.893-27.662-19.471-25.501-6.21-25.248-4.66-25.063-3.098-24.852-1.581-34.923 1.152-40.292 6.335-40.728 15.345-41.181 24.711-39.505 33.511-30.22 39.032-28.343 40.148-27.446 43.487-26.794 45.984-24.773 53.72-24.014 62.144-14.455 64.911-25.102 53.032-27.016 43.605-22.043 35.279-21.318 40.453-20.846 47.485-19.137 54.202-18.448 56.91-15.432 59.906-12.762 60.951-10.64 61.782-7.435 59.844-4.71 59.135-4.531 59.533-4.351 59.931-4.172 60.329-7.665 61.808-11.158 63.286-14.652 64.764-12.497 65.819-10.318 67.826-8.192 67.773 4.149 67.462 16.481 66.739 28.808 66.016 44.276 65.109 59.727 63.801 75.206 63.219 81.289 62.99 87.423 64.324 93.544 64.828 106.261 65.873 118.978 67.309 131.712 67.509 134.895 67.559 139.291 64.223 141.112 61.22 144.524 55.595 146.46 49.076 149.277 42.287 156.287 42.517 162.809 40.266 164.713 31.682 177.291 34.09 178.291 35.756 175.841 47.646 175.392 49.824 175.624 52.563 176.581 54.539 181.952 65.628 198.966 73.673 210.944 71.097 216.596 69.882 218.692 65.076 215.983 59.227 214.769 56.606 213.266 54.119 211.817 51.43 219.976 49.404 227.505 52.686 231.413 61.578 234.566 68.749 235.625 76.84 237.462 83.941 240.078 75.052 241.435 64.773 234.566 56.926 229.457 51.091 221.899 46.497 214.534 43.823 208.493 41.629 204.551 48.209 207.123 54.701 208.195 57.409 209.448 60.045 211.031 63.652 202.497 66.922 195.937 63.436 189.957 59.241 185.235 55.929 180.539 52.314 182.937 44.749 186.05 34.934 182.978 29.27 172.742 25.776 167.998 24.157 165.058 22.275 164.001 17.013 162.44 9.242 157.148 4.434 151.225 2.851 148.449-3.88 146.177-9.385 143.904-14.892 144.974-10.355 146.045-5.816 147.189-.969 140.986 .454 134.32 4.229 130.241 2.359 124.96-.062 121.742-6.984 117.636-11.968 118.271-13.118 118.906-14.269 119.542-15.42 127.729-15.177 135.916-14.934 144.103-14.692"
     fill="#231f20"
     id="path3"
     clip-path="none" />
  <path
     transform="matrix(1 0 0 -1 386.345 149.191)"
     d="M0 0C-21.53-2.474-20.104-2.327-16.566-13.083-19.881-12.085-23.339-11.043-27.328-9.841-28.062-5.209-19.673-4.342-21.874 3.439-23.665 9.771-25.197 12.208-31.705 12.629-39.248 13.117-43.159 8.184-45.372 3.238-48.247-3.189-38.514-5.532-35.812-11.289-37.496-12.493-39.177-13.693-41.18-15.125-40.177-1.472-49.95-7.771-58.096-6.875-53.612-4.256-50.927-2.688-46.702-.221-54.662 3.851-61.505 7.351-68.348 10.851-68.238 11.105-68.129 11.36-68.019 11.615-62.843 10.518-57.699 9.208-52.476 8.419-50.014 8.046-47.401 8.673-44.856 8.847-45.086 11.338-46.412 12.821-47.029 15.212-47.593 17.402-49.383 23.2-50.644 25.887-46.15 22.493-40.49 16.925-36.711 14.071-34.069 17.847-31.051 33.397-28.838 36.561-28.221 34.309-28.621 18.023-26.378 15.827-24.443 13.933-12.32 23.013-9.151 22.615-11.115 17.802-21.299 8.654-19.777 6.881-18.014 4.826-11.271 2.086 0 0"
     fill="#231f20"
     id="path4"
     clip-path="none" />
  <text
     fill="#231f20"
     xml:space="preserve"
     transform="translate(0, 425.197)"
     font-size="12"
     font-family="MyriadPro"
     id="text25"
     clip-path="none"><tspan
       y="-213.4785"
       x="205.63791"
       id="tspan25"> </tspan></text>
</svg>
